libs/ui/packages/crypto-icons/src/svg/HSR.svg

<svg width="24" height="24" viewBox="0 0 24 24" fill="none">
<path d="M8.0625 5.625H11.328C10.935 6.2475 10.6943 6.93525 10.7093 7.68C11.6805 7.68975 12.6548 7.68975 13.6268 7.68C13.6395 6.93975 13.4408 6.2325 13.0155 5.625H16.3035C16.077 6.09975 15.6923 6.54 15.729 7.09725C15.714 9.59025 15.7343 12.0848 15.7267 14.5778C16.0492 14.5778 16.3755 14.5778 16.7017 14.58C16.9395 14.1075 17.151 13.6252 17.3197 13.125C18.2963 13.1498 19.278 13.0972 20.25 13.2277C19.2885 14.0572 18.786 15.2378 18.1597 16.3125C15.6742 16.3177 13.1895 16.305 10.7017 16.32C10.5848 17.2275 11.1442 17.8523 11.7922 18.375H7.5945C7.95975 17.8927 8.6955 17.5822 8.61825 16.875C8.643 14.4653 8.61825 12.0525 8.62575 9.63975H10.7557V11.1248H13.5817V9.42225H7.6815L6.21525 12C6.70275 12.8602 7.19175 13.719 7.68375 14.5778H8.40975V16.3125H6.1905C5.3805 14.8725 4.5405 13.4497 3.75 12V11.9977C4.54275 10.5503 5.385 9.1275 6.1905 7.6875C7.0185 7.6875 7.84575 7.6875 8.673 7.68C8.68403 6.94863 8.47071 6.23144 8.06175 5.625H8.0625ZM10.7565 12.8752V14.5778H13.5817V12.8752H10.7565ZM15.9427 7.6875H18.1553C18.7613 8.6625 19.1782 9.7875 20.0527 10.5675C20.0707 10.6253 20.103 10.743 20.1203 10.8C19.1858 10.923 18.2393 10.8278 17.2972 10.875C17.1772 10.3552 16.9417 9.8775 16.6807 9.42L15.9427 9.42225V7.6875ZM13.659 16.53C14.3123 16.5323 14.9685 16.53 15.6225 16.5278C15.6075 17.3625 16.1918 17.88 16.7655 18.375H12.5377C13.08 17.8605 13.7137 17.3723 13.659 16.53Z" fill="#56428E"/>
<path d="M8.0625 5.625H11.328C10.935 6.2475 10.6943 6.93525 10.7093 7.68C11.6805 7.68975 12.6548 7.68975 13.6268 7.68C13.6395 6.93975 13.4408 6.2325 13.0155 5.625H16.3035C16.077 6.09975 15.6923 6.54 15.729 7.09725C15.714 9.59025 15.7343 12.0848 15.7267 14.5778C16.0492 14.5778 16.3755 14.5778 16.7017 14.58C16.9395 14.1075 17.151 13.6252 17.3197 13.125C18.2963 13.1498 19.278 13.0972 20.25 13.2277C19.2885 14.0572 18.786 15.2378 18.1597 16.3125C15.6742 16.3177 13.1895 16.305 10.7017 16.32C10.5848 17.2275 11.1442 17.8523 11.7922 18.375H7.5945C7.95975 17.8927 8.6955 17.5822 8.61825 16.875C8.643 14.4653 8.61825 12.0525 8.62575 9.63975H10.7557V11.1248H13.5817V9.42225H7.6815L6.21525 12C6.70275 12.8602 7.19175 13.719 7.68375 14.5778H8.40975V16.3125H6.1905C5.3805 14.8725 4.5405 13.4497 3.75 12V11.9977C4.54275 10.5503 5.385 9.1275 6.1905 7.6875C7.0185 7.6875 7.84575 7.6875 8.673 7.68C8.68403 6.94863 8.47071 6.23144 8.06175 5.625H8.0625ZM10.7565 12.8752V14.5778H13.5817V12.8752H10.7565ZM15.9427 7.6875H18.1553C18.7613 8.6625 19.1782 9.7875 20.0527 10.5675C20.0707 10.6253 20.103 10.743 20.1203 10.8C19.1858 10.923 18.2393 10.8278 17.2972 10.875C17.1772 10.3552 16.9417 9.8775 16.6807 9.42L15.9427 9.42225V7.6875ZM13.659 16.53C14.3123 16.5323 14.9685 16.53 15.6225 16.5278C15.6075 17.3625 16.1918 17.88 16.7655 18.375H12.5377C13.08 17.8605 13.7137 17.3723 13.659 16.53Z" fill="#56428E"/>
</svg>

<svg width="24" height="24" viewBox="0 0 24 24" fill="none"><path fill="#56428e" d="M8.063 5.625h3.265c-.393.622-.634 1.31-.619 2.055q1.459.015 2.918 0a3.43 3.43 0 0 0-.612-2.055h3.288c-.226.475-.61.915-.574 1.472-.015 2.493.005 4.988-.002 7.48q.484 0 .975.003c.237-.473.449-.955.618-1.455.976.025 1.958-.028 2.93.103-.962.83-1.464 2.01-2.09 3.085-2.486.005-4.97-.008-7.458.007-.117.907.442 1.532 1.09 2.055H7.595c.365-.482 1.1-.793 1.023-1.5.025-2.41 0-4.822.008-7.235h2.13v1.485h2.826V9.422h-5.9L6.214 12q.731 1.29 1.469 2.578h.726v1.735H6.19C5.38 14.873 4.54 13.45 3.75 12v-.002c.793-1.448 1.635-2.87 2.44-4.31q1.243.002 2.483-.008a3.6 3.6 0 0 0-.611-2.055m2.694 7.25v1.703h2.825v-1.703zm5.186-5.187h2.212c.606.974 1.023 2.1 1.898 2.88.018.057.05.175.067.232-.934.123-1.88.028-2.823.075-.12-.52-.355-.998-.616-1.455l-.738.002zm-2.284 8.842q.982.002 1.963-.002c-.014.835.57 1.352 1.143 1.847h-4.227c.542-.515 1.176-1.003 1.121-1.845"/><path fill="#56428e" d="M8.063 5.625h3.265c-.393.622-.634 1.31-.619 2.055q1.459.015 2.918 0a3.43 3.43 0 0 0-.612-2.055h3.288c-.226.475-.61.915-.574 1.472-.015 2.493.005 4.988-.002 7.48q.484 0 .975.003c.237-.473.449-.955.618-1.455.976.025 1.958-.028 2.93.103-.962.83-1.464 2.01-2.09 3.085-2.486.005-4.97-.008-7.458.007-.117.907.442 1.532 1.09 2.055H7.595c.365-.482 1.1-.793 1.023-1.5.025-2.41 0-4.822.008-7.235h2.13v1.485h2.826V9.422h-5.9L6.214 12q.731 1.29 1.469 2.578h.726v1.735H6.19C5.38 14.873 4.54 13.45 3.75 12v-.002c.793-1.448 1.635-2.87 2.44-4.31q1.243.002 2.483-.008a3.6 3.6 0 0 0-.611-2.055m2.694 7.25v1.703h2.825v-1.703zm5.186-5.187h2.212c.606.974 1.023 2.1 1.898 2.88.018.057.05.175.067.232-.934.123-1.88.028-2.823.075-.12-.52-.355-.998-.616-1.455l-.738.002zm-2.284 8.842q.982.002 1.963-.002c-.014.835.57 1.352 1.143 1.847h-4.227c.542-.515 1.176-1.003 1.121-1.845"/></svg>
